src/topics/icons/crowdprocess.svg

<svg height="283" preserveAspectRatio="xMidYMid" viewBox="0 0 256 283" width="256" xmlns="http://www.w3.org/2000/svg"><path d="m256 141.493925c0-42.5940885-34.526576-77.1234924-77.120665-77.1234924-18.487694 0-35.451243 6.5066054-48.735916 17.3509477l-82.9938586-81.7213803-39.36764903 39.9784386 33.09574513 32.5895815c-24.3580612 13.3949543-40.8776565 39.1272919-40.8776565 68.9259049 0 43.26426 35.0638448 78.610878 78.6108779 78.610878 18.8383334 0 36.1270711-6.636681 49.6577561-17.698759l81.619582 80.366898 39.364822-39.975611-33.870543-33.355896c24.179914-12.91424 40.527018-38.646578 40.527018-67.94751zm-77.983122 23.764238c-8.562365 0-16.02757-4.230283-19.992047-10.869792h-58.9722971c-3.9644766 6.642336-11.4296823 10.869792-19.992047 10.869792-12.7134715 0-23.0177175-10.677506-23.0177175-23.390978 0-12.713471 10.304246-22.658596 23.0177175-22.658596 8.7405116 0 16.4008306 3.958821 20.3596518 12.408077h58.4774443c3.896611-8.539743 11.500376-12.594707 20.240887-12.594707 12.713472 0 22.904609 10.462599 22.904609 23.187381 0 12.724783-10.31273 22.930058-22.896125 23.048823z" fill="#1ba6d7"/></svg>

<?xml version="1.0" encoding="UTF-8" standalone="no"?>
<svg width="256px" height="283px" viewBox="0 0 256 283" version="1.1" xmlns="http://www.w3.org/2000/svg" xmlns:xlink="http://www.w3.org/1999/xlink" preserveAspectRatio="xMidYMid">
    <g>
        <path d="M256,141.493925 C256,98.8998365 221.473424,64.3704326 178.879335,64.3704326 C160.391641,64.3704326 143.428092,70.877038 130.143419,81.7213803 L47.1495604,-3.55271368e-15 L7.78191137,39.9784386 L40.8776565,72.5680201 C16.5195953,85.9629744 0,111.695312 0,141.493925 C0,184.758185 35.0638448,220.104803 78.6108779,220.104803 C97.4492113,220.104803 114.737949,213.468122 128.268634,202.406044 L209.888216,282.772942 L249.253038,242.797331 L215.382495,209.441435 C239.562409,196.527195 255.909513,170.794857 255.909513,141.493925 L256,141.493925 Z M178.016878,165.258163 C169.454513,165.258163 161.989308,161.02788 158.024831,154.388371 L99.0525339,154.388371 C95.0880573,161.030707 87.6228516,165.258163 79.0604869,165.258163 C66.3470154,165.258163 56.0427694,154.580657 56.0427694,141.867185 C56.0427694,129.153714 66.3470154,119.208589 79.0604869,119.208589 C87.8009985,119.208589 95.4613175,123.16741 99.4201387,131.616666 L157.897583,131.616666 C161.794194,123.076923 169.397959,119.021959 178.13847,119.021959 C190.851942,119.021959 201.043079,129.484558 201.043079,142.20934 C201.043079,154.934123 190.730349,165.139398 178.146954,165.258163 L178.016878,165.258163 Z" fill="#1BA6D7"></path>
    </g>
</svg>
